Papirus/64x64/devices/phone.svg

<?xml version="1.0" encoding="UTF-8" standalone="no"?>
<svg xmlns="http://www.w3.org/2000/svg" height="64" width="64" version="1">
 <path style="opacity:0.2" d="m 8,57 0,3 c 0,1.662 1.338,3 3,3 l 42,0 c 1.662,0 3,-1.338 3,-3 l 0,-3 c 0,1.662 -1.338,3 -3,3 L 11,60 C 9.338,60 8,58.662 8,57 Z"/>
 <rect style="fill:#6d6d6d" ry="3" rx="3" transform="matrix(0,-1,-1,0,0,0)" height="48" width="60" y="-56" x="-62"/>
 <path style="fill:#4d4d4d" d="m 15.077,7.9994 33.848,0 c 1.704,0 3.076,1.5096 3.076,3.3846 l 0,37.232 C 52.001,50.49 50.629,52 48.925,52 l -33.848,0 c -1.7036,0 -3.076,-1.50916 -3.076,-3.3836 l 0,-37.23 C 12.003,9.5116 13.3754,8.002 15.08,8.002 Z"/>
 <path style="opacity:0.1;fill:#ffffff" d="M 11 2 C 9.338 2 8 3.338 8 5 L 8 6 C 8 4.338 9.338 3 11 3 L 53 3 C 54.662 3 56 4.338 56 6 L 56 5 C 56 3.338 54.662 2 53 2 L 11 2 z"/>
 <rect style="fill:#4d4d4d" rx="1" ry="1" height="2" width="16" y="4" x="24"/>
 <path d="m 26.73,11.806602 -1.73,1 2.394,4.148598 C 23.018,19.069401 23,24.002001 23,24.002001 h 18 c 0,0 -0.02,-4.933 -4.394,-7.046801 L 39,12.806602 l -1.73046,-1 -2.5898,4.484399 c -0.794,-0.177599 -1.67,-0.289 -2.676,-0.289 -1.008,0 -1.888,0.111001 -2.684,0.289 l -2.59,-4.484399 z m 1.274,8.195399 c 0.554,0 0.996,0.446 0.996,0.996 0,0.55 -0.448,1.004 -0.996,1.004 -0.554,0 -1.004,-0.448 -1.004,-1.004 0,-0.55 0.45,-0.996 1.004,-0.996 z m 8,0 c 0.554,0 0.996,0.446 0.996,0.996 0,0.55 -0.448,1.004 -0.996,1.004 -0.554,0 -1.004,-0.448 -1.004,-1.004 0,-0.55 0.45,-0.996 1.004,-0.996 z m 8.084,4.9974 c -1.15,0 -2.088,1.06 -2.088,2.366 V 36.6264 c 0,1.306 0.938,2.372 2.088,2.372 1.15,0 1.912,-1.066 1.912,-2.372 v -9.260999 c 0,-1.308 -0.76,-2.368 -1.912,-2.368 M 23,24.999401 22.99951,41.9994 c -1.4e-5,0.471461 0.52878,1 1.00024,1 h 3 v 3.7502 c 0,1.244 0.792,2.25 2,2.25 1.20038,0 2.0398,-1.007179 2,-2.2498 v -3.75 h 2 V 46.75 c 0,1.244 0.792,2.25 2,2.25 1.20038,0 2,-1.02346 2,-2.2498 v -3.75 h 3 c 0.472,0 1,-0.528 1,-1 V 25.000201 Z m -2.912,0 c -1.1506,0 -2.088,1.06 -2.088,2.366 V 36.6264 c 0,1.306 0.9374,2.372 2.088,2.372 1.1506,0 1.912,-1.066 1.912,-2.372 v -9.260999 c 0,-1.308 -0.76,-2.368 -1.912,-2.368 m 15.834,-4.44 m -16.7538,3.52" style="opacity:0.2"/>
 <path style="fill:#a4ca39" d="m 26.73,10.806602 -1.73,1 2.394,4.148598 C 23.018,18.069401 23,23.002001 23,23.002001 h 18 c 0,0 -0.02,-4.933 -4.394,-7.046801 L 39,11.806602 l -1.73046,-1 -2.5898,4.484399 c -0.794,-0.177599 -1.67,-0.289 -2.676,-0.289 -1.008,0 -1.888,0.111001 -2.684,0.289 l -2.59,-4.484399 z m 1.274,8.195399 c 0.554,0 0.996,0.446 0.996,0.996 0,0.55 -0.448,1.004 -0.996,1.004 -0.554,0 -1.004,-0.448 -1.004,-1.004 0,-0.55 0.45,-0.996 1.004,-0.996 z m 8,0 c 0.554,0 0.996,0.446 0.996,0.996 0,0.55 -0.448,1.004 -0.996,1.004 -0.554,0 -1.004,-0.448 -1.004,-1.004 0,-0.55 0.45,-0.996 1.004,-0.996 z m 8.084,4.9974 c -1.15,0 -2.088,1.06 -2.088,2.366 V 35.6264 c 0,1.306 0.938,2.372 2.088,2.372 1.15,0 1.912,-1.066 1.912,-2.372 v -9.260999 c 0,-1.308 -0.76,-2.368 -1.912,-2.368 M 23,23.999401 22.99951,40.9994 c -1.4e-5,0.471461 0.52878,1 1.00024,1 h 3 v 3.7502 c 0,1.244 0.792,2.25 2,2.25 1.20038,0 2.0398,-1.007179 2,-2.2498 v -3.75 h 2 V 45.75 c 0,1.244 0.792,2.25 2,2.25 1.20038,0 2,-1.02346 2,-2.2498 v -3.75 h 3 c 0.472,0 1,-0.528 1,-1 V 24.000201 Z m -2.912,0 c -1.1506,0 -2.088,1.06 -2.088,2.366 V 35.6264 c 0,1.306 0.9374,2.372 2.088,2.372 1.1506,0 1.912,-1.066 1.912,-2.372 v -9.260999 c 0,-1.308 -0.76,-2.368 -1.912,-2.368 m 15.834,-4.44 m -16.7538,3.52"/>
</svg>

<svg xmlns="http://www.w3.org/2000/svg" width="64" height="64" version="1">
 <rect style="opacity:0.2" width="48" height="60" x="8" y="3" rx="3" ry="3"/>
 <rect style="fill:#8e8e8e" width="48" height="60" x="8" y="2" rx="3" ry="3"/>
 <rect style="opacity:0.5" width="40" height="44" x="12" y="8" rx="3" ry="3"/>
 <rect style="opacity:0.5" width="14" height="2" x="24" y="4" rx="1" ry="1"/>
 <circle style="opacity:0.5" cx="32" cy="57" r="3"/>
 <path style="opacity:0.2" d="M 26.73,11.807 25,12.807 27.394,16.955 C 23.018,19.069 23,24.002 23,24.002 H 41 C 41,24.002 40.98,19.069 36.606,16.955 L 39,12.807 37.27,11.807 34.68,16.291 C 33.886,16.113 33.01,16.002 32.004,16.002 30.996,16.002 30.116,16.113 29.32,16.291 Z M 28.004,20.002 C 28.558,20.002 29,20.448 29,20.998 29,21.548 28.552,22.002 28.004,22.002 27.45,22.002 27,21.554 27,20.998 27,20.448 27.45,20.002 28.004,20.002 Z M 36.004,20.002 C 36.558,20.002 37,20.448 37,20.998 37,21.548 36.552,22.002 36.004,22.002 35.45,22.002 35,21.554 35,20.998 35,20.448 35.45,20.002 36.004,20.002 Z M 44.088,24.999 C 42.938,24.999 42,26.059 42,27.365 V 36.626 C 42,37.932 42.938,38.998 44.088,38.998 45.238,38.998 46,37.932 46,36.626 V 27.365 C 46,26.057 45.24,24.997 44.088,24.997 M 23,24.999 V 41.999 C 23,42.471 23.529,42.999 24,42.999 H 27 V 46.75 C 27,47.994 27.792,49 29,49 30.2,49 31.04,47.992 31,46.75 V 43 H 33 V 46.75 C 33,47.994 33.792,49 35,49 36.2,49 37,47.977 37,46.75 V 43 H 40 C 40.472,43 41,42.472 41,42 V 25 Z M 20.088,24.999 C 18.938,24.999 18,26.059 18,27.365 V 36.626 C 18,37.932 18.938,38.998 20.088,38.998 21.239,38.998 22,37.932 22,36.626 V 27.365 C 22,26.057 21.24,24.997 20.088,24.997 M 35.922,20.557 M 19.168,24.077"/>
 <path style="fill:#a4ca39" d="M 26.73,10.807 25,11.807 27.394,15.955 C 23.018,18.069 23,23.002 23,23.002 H 41 C 41,23.002 40.98,18.069 36.606,15.955 L 39,11.807 37.27,10.807 34.68,15.291 C 33.886,15.113 33.01,15.002 32.004,15.002 30.996,15.002 30.116,15.113 29.32,15.291 Z M 28.004,19.002 C 28.558,19.002 29,19.448 29,19.998 29,20.548 28.552,21.002 28.004,21.002 27.45,21.002 27,20.554 27,19.998 27,19.448 27.45,19.002 28.004,19.002 Z M 36.004,19.002 C 36.558,19.002 37,19.448 37,19.998 37,20.548 36.552,21.002 36.004,21.002 35.45,21.002 35,20.554 35,19.998 35,19.448 35.45,19.002 36.004,19.002 Z M 44.088,23.999 C 42.938,23.999 42,25.059 42,26.365 V 35.626 C 42,36.932 42.938,37.998 44.088,37.998 45.238,37.998 46,36.932 46,35.626 V 26.365 C 46,25.057 45.24,23.997 44.088,23.997 M 23,23.999 V 40.999 C 23,41.471 23.529,41.999 24,41.999 H 27 V 45.75 C 27,46.994 27.792,48 29,48 30.2,48 31.04,46.992 31,45.75 V 42 H 33 V 45.75 C 33,46.994 33.792,48 35,48 36.2,48 37,46.977 37,45.75 V 42 H 40 C 40.472,42 41,41.472 41,41 V 24 Z M 20.088,23.999 C 18.938,23.999 18,25.059 18,26.365 V 35.626 C 18,36.932 18.938,37.998 20.088,37.998 21.239,37.998 22,36.932 22,35.626 V 26.365 C 22,25.057 21.24,23.997 20.088,23.997 M 35.922,19.557 M 19.168,23.077"/>
 <path style="opacity:0.2;fill:#ffffff" d="M 11 2 C 9.338 2 8 3.338 8 5 L 8 6 C 8 4.338 9.338 3 11 3 L 53 3 C 54.662 3 56 4.338 56 6 L 56 5 C 56 3.338 54.662 2 53 2 L 11 2 z"/>
</svg>
